X:1
T:Title
%%score { ( 1 3 ) | ( 2 4 ) }
L:1/8
M:6/8
K:D
V:1 treble nm="Grand Piano"
V:3 treble 
V:2 bass 
V:4 bass 
V:1
 z3 z[Q:1/4=83] [A,DF]>[A,EG] | [A,FA][A,FA][A,FA] [A,FA][A,DF][DGB] | %2
 [DFA]3- [DFA]2 [A,EG]/[A,DF]/ | [CE][CE][CE] [GB][FA][EG] | [DF]3- [DF]2 [DF]/[EG]/ | %5
 [FA][FA][FA] [FA][EG]F |[M:5/8] BBB [FA]2 |[M:1/8] [Fd]/[Fd]/ |[M:3/4] cB cd F^G | %9
[M:5/8] [CA]-[CA]- [CA]3 |[M:1/8] [CA]/[CA]/ |[M:3/4] [CA][CE] [DF][EG] [DF][CE] | %12
 [DF]4- [DF][FA]/[FA]/ | [GB][GB] [AB][^GB]/[Ge]/- [Ge][Gd] | c4- cB/c/ | %15
[M:5/8] [Fd][Ac][GB] [FA]2 |[M:1/8] F/F/ |[M:3/4] FE D B2 D/E/ | FG ^GA Bc | %19
[M:9/16] d-[Ad]/-[Ad-]/[Gd-][Fd]3/2 |] %20
V:2
 z3 z D,>D, | D,D,D, D,D,D, | D,3- D,2 D,/D,/ | [A,,A,][A,,A,][A,,A,] [A,,A,][A,,A,][A,,A,] | %4
 [D,A,]3- [D,A,]2 [D,A,]/[D,A,]/ | [D,A,][D,A,][D,A,] [D,A,][D,A,][D,A,D] | %6
[M:5/8][K:treble] [G,D][G,DG][G,DG][K:bass] [D,D]2 |[M:1/8] [D,A,]/[D,A,]/ | %8
[M:3/4] [E,A,E][E,^G,E] [E,A,E][E,B,E] [E,A,D][E,B,D] |[M:5/8] [A,,A,]-[A,,A,]- [A,,A,]3 | %10
[M:1/8] [A,,A,]/[A,,A,]/ |[M:3/4] [A,,A,][A,,A,] [A,,A,][A,,A,] [A,,A,][A,,A,] | %12
 [D,A,]4- [D,A,][D,D]/[D,D]/ | [G,D][G,D] [F,^D][E,E]/[E,B,]/- [E,B,][E,E] | %14
 [A,EA]4- [A,EA][A,EG]/[A,EG]/ |[M:5/8][K:bass] [D,D][D,D][D,D] [D,D]2 |[M:1/8] [D,A,D]/[D,A,D]/ | %17
[M:3/4] [D,A,D][D,G,C] [D,F,] [G,D]2 [G,B,]/[K:treble][G,^A,D]/ | %18
 [A,D][A,E] [A,=F][A,^F] [A,G][A,EG] |[M:9/16][K:bass] z C/-C/B,A,3/2 |] %20
V:3
 x6 | x6 | x6 | x6 | x6 | x6 |[M:5/8] x5 |[M:1/8] x |[M:3/4] x6 |[M:5/8] x5 |[M:1/8] x | %11
[M:3/4] x6 | x6 | x6 | x6 |[M:5/8] x5 |[M:1/8] x |[M:3/4] x6 | x6 |[M:9/16] .[DF]3/2 z3/2 z3/2 |] %20
V:4
 x6 | x6 | x6 | x6 | x6 | x6 |[M:5/8][K:treble] x3[K:bass] x2 |[M:1/8] x |[M:3/4] x6 |[M:5/8] x5 | %10
[M:1/8] x |[M:3/4] x6 | x6 | x6 | x6 |[M:5/8][K:bass] x5 |[M:1/8] x |[M:3/4] x11/2[K:treble] x/ | %18
 x6 |[M:9/16][K:bass] D,4- D,/ |] %20

